packages/astro-components-stencil/src/icons/usb.svg

<svg width="24" height="24" viewBox="0 0 24 24" fill="none" xmlns="http://www.w3.org/2000/svg">
<path d="M18 6.99989H16C15.45 6.99989 15 7.44989 15 7.99989V9.99989C15 10.5499 15.45 10.9999 16 10.9999V12.9999H13V4.99989H14C14.41 4.99989 14.65 4.52989 14.4 4.19989L12.4 1.52989C12.2 1.25989 11.8 1.25989 11.6 1.52989L9.59999 4.19989C9.34999 4.52989 9.58999 4.99989 9.99999 4.99989H11V12.9999H7.99999V10.9299C8.82999 10.4899 9.37999 9.56989 9.13999 8.49989C8.96999 7.72989 8.36999 7.09989 7.61999 6.88989C6.14999 6.47989 4.79999 7.58989 4.79999 8.99989C4.79999 9.84989 5.29999 10.5599 5.99999 10.9299V12.9999C5.99999 14.0999 6.89999 14.9999 7.99999 14.9999H11V18.0499C10.14 18.4999 9.60999 19.4699 9.86999 20.5399C10.05 21.2899 10.66 21.9199 11.41 22.1199C12.87 22.5099 14.21 21.4199 14.21 19.9999C14.21 19.1499 13.72 18.4199 13.01 18.0499V14.9999H16.01C17.11 14.9999 18.01 14.0999 18.01 12.9999V10.9999C18.56 10.9999 19.01 10.5499 19.01 9.99989V7.99989C19 7.44989 18.55 6.99989 18 6.99989Z" fill="black"/>
</svg>

<svg xmlns="http://www.w3.org/2000/svg" viewBox="0 0 24 24"><g xmlns="http://www.w3.org/2000/svg" id="usb" fill-rule="nonzero">
            <path d="M18 7h-2c-.55 0-1 .45-1 1v2c0 .55.45 1 1 1v2h-3V5h1a.5.5 0 00.4-.8l-2-2.67c-.2-.27-.6-.27-.8 0l-2 2.67a.5.5 0 00.4.8h1v8H8v-2.07c.83-.44 1.38-1.36 1.14-2.43-.17-.77-.77-1.4-1.52-1.61C6.15 6.48 4.8 7.59 4.8 9c0 .85.5 1.56 1.2 1.93V13c0 1.1.9 2 2 2h3v3.05c-.86.45-1.39 1.42-1.13 2.49a2.204 2.204 0 004.34-.54c0-.85-.49-1.58-1.2-1.95V15h3c1.1 0 2-.9 2-2v-2c.55 0 1-.45 1-1V8C19 7.45 18.55 7 18 7z"/>
        </g></svg>
